X: 191
T: SLIP JIG: Butterfly
C: C: Tommy Potts; S: Various
C: Set Leaders: Andrey, Anton
Z: Anton Zille ed., Oleg Naumov arr.; James Dumbelton at The Session
N: https://thesession.org/members/26966/sets/96719
R: Slip Jig
M: 9/8
L: 1/8
Q: 3/8=114
K: Emin
|:"Em"B2E G2E "D"F3|"Em"B2E G2E "D"FED|"Em"B2E G2E "D"F3|"G"B2d d2B "D"AFD:||
|:"Am"B2c e2f g3|"Bm"B2c g2e dBA|"C"B2c e2f g2a|"D"b2a g2e dBA:||
|:"Em"B3 B2A G2A|"D"B3 BAB dBA|"C"B3 B2A G2A|"D"B2d g2e dBA:||

